;FLAVOR:Marlin
;TIME:4056
;Filament used: 1.03227m, 0m
;Layer height: 0.15
;MINX:175.212
;MINY:115.212
;MINZ:0.2
;MAXX:244.788
;MAXY:184.788
;MAXZ:11
;Generated with StratosEngine 1.2.2
T0
M82 ;absolute extrusion mode
;Machine Model: Sigma D25 
;Materials used: T0 PLA T1 PLA 
;Extruders used: T0 0.4 T1 0.4 
M141 S40 	;Set chamber temperature 
M140 S60 	;Heat build surface
M104 T0 S205	;Heat extruder 0
M104 T1 S205	;Heat extruder 1
M190 S60 	;Wait until bed temperature reached 
M109 T0 S205	;Heat extruder 0 and wait
M109 T1 S205	;Heat extruder 1 and wait
G21 		;metric values 
G90 		;absolute positioning 
M204 S2500 	;set default acceleration 
M205 X12.5 Y12.5 ;set default jerk 
M107 		;start with the fan off 
G28 X0 Y0 	;move X/Y to min endstops 
G28 Z0 		;move Z to min endstops 
G1 Z5 F200 	;safety Z axis movement
T1
G92 E0 		;set zero the extruded length 
G1 E10 F30
G92 E0 
G1 E-8 F1000 
G92 E0
T0
G92 E0 		;set zero the extruded length 
G1 E10 F30
G92 E0 
G4 S2 		;stabilize hotend 
G1 E-0.5 F1000 
G92 E0

G4 P1
G4 P2
G4 P3

M141 S40
G92 E0
;LAYER_COUNT:73
;LAYER:0
M107
M204 S456
M205 X9.38 Y9.38
G1 F600 Z0.5
G0 F6000 X210.438 Y184.788 Z0.5
M204 S1425
;TYPE:SKIRT
G1 F600 Z0.2
G1 F1050 E0
G1 F1350 X209.562 Y184.788 E0.01099
G1 X206.54 Y184.618 E0.04894
G1 X205.673 Y184.52 E0.05988
G1 X202.686 Y184.013 E0.09788
G1 X201.833 Y183.818 E0.10885
G1 X198.923 Y182.98 E0.14683
G1 X198.093 Y182.69 E0.15785
G1 X195.298 Y181.531 E0.1958
G1 X194.514 Y181.154 E0.20671
G1 X191.862 Y179.689 E0.2447
G1 X191.119 Y179.221 E0.25571
G1 X188.651 Y177.469 E0.29367
G1 X187.97 Y176.926 E0.30459
G1 X185.711 Y174.908 E0.34257
G1 X185.09 Y174.287 E0.35359
G1 X183.073 Y172.029 E0.39156
G1 X182.529 Y171.348 E0.40249
G1 X180.778 Y168.881 E0.44042
G1 X180.313 Y168.14 E0.45139
G1 X178.847 Y165.488 E0.48939
G1 X178.467 Y164.7 E0.50037
G1 X177.308 Y161.903 E0.53833
G1 X177.018 Y161.075 E0.54934
G1 X176.18 Y158.164 E0.58732
G1 X175.986 Y157.31 E0.5983
G1 X175.48 Y154.326 E0.63626
G1 X175.382 Y153.46 E0.64719
G1 X175.212 Y150.439 E0.68513
G1 X175.212 Y149.563 E0.69612
G1 X175.382 Y146.54 E0.73409
G1 X175.48 Y145.674 E0.74502
G1 X175.986 Y142.69 E0.78297
G1 X176.18 Y141.836 E0.79395
G1 X177.018 Y138.925 E0.83194
G1 X177.309 Y138.095 E0.84297
G1 X178.469 Y135.298 E0.88094
G1 X178.846 Y134.514 E0.89185
G1 X180.311 Y131.862 E0.92985
G1 X180.778 Y131.119 E0.94085
G1 X182.529 Y128.652 E0.97879
G1 X183.073 Y127.971 E0.98972
G1 X185.09 Y125.713 E1.02769
G1 X185.711 Y125.092 E1.0387
G1 X187.97 Y123.074 E1.07669
G1 X188.651 Y122.531 E1.08761
G1 X191.119 Y120.779 E1.12557
G1 X191.86 Y120.313 E1.13654
G1 X194.512 Y118.847 E1.17454
G1 X195.3 Y118.467 E1.18551
G1 X198.095 Y117.309 E1.22345
G1 X198.923 Y117.02 E1.23445
G1 X201.833 Y116.182 E1.27243
G1 X202.686 Y115.987 E1.2834
G1 X205.673 Y115.48 E1.32139
G1 X206.54 Y115.382 E1.33233
G1 X209.562 Y115.212 E1.37029
G1 X210.438 Y115.212 E1.38128
G1 X213.46 Y115.382 E1.41923
G1 X214.327 Y115.48 E1.43018
G1 X217.314 Y115.987 E1.46817
G1 X218.167 Y116.182 E1.47914
G1 X221.077 Y117.02 E1.51712
G1 X221.907 Y117.31 E1.52814
G1 X224.702 Y118.469 E1.56609
G1 X225.486 Y118.846 E1.577
G1 X228.138 Y120.311 E1.61499
G1 X228.881 Y120.778 E1.626
G1 X231.348 Y122.529 E1.66393
G1 X232.029 Y123.073 E1.67486
G1 X234.287 Y125.09 E1.71283
G1 X234.908 Y125.711 E1.72385
G1 X236.926 Y127.97 E1.76183
G1 X237.469 Y128.651 E1.77275
G1 X239.221 Y131.119 E1.81071
G1 X239.687 Y131.86 E1.82169
G1 X241.153 Y134.512 E1.85969
G1 X241.533 Y135.3 E1.87066
G1 X242.691 Y138.095 E1.9086
G1 X242.98 Y138.923 E1.91959
G1 X243.818 Y141.833 E1.95757
G1 X244.013 Y142.685 E1.96853
G1 X244.52 Y145.67 E2.0065
G1 X244.618 Y146.538 E2.01745
G1 X244.788 Y149.561 E2.05542
G1 X244.788 Y150.437 E2.06641
G1 X244.618 Y153.46 E2.10438
G1 X244.52 Y154.326 E2.11531
G1 X244.014 Y157.31 E2.15326
G1 X243.82 Y158.164 E2.16424
G1 X242.982 Y161.075 E2.20223
G1 X242.691 Y161.905 E2.21326
G1 X241.531 Y164.702 E2.25123
G1 X241.154 Y165.486 E2.26214
G1 X239.689 Y168.138 E2.30014
G1 X239.222 Y168.881 E2.31114
G1 X237.471 Y171.348 E2.34908
G1 X236.927 Y172.029 E2.36001
G1 X234.91 Y174.287 E2.39798
G1 X234.289 Y174.908 E2.40899
G1 X232.03 Y176.926 E2.44698
G1 X231.349 Y177.469 E2.4579
G1 X228.881 Y179.221 E2.49586
G1 X228.138 Y179.689 E2.50687
G1 X225.486 Y181.154 E2.54486
G1 X224.702 Y181.531 E2.55577
G1 X221.907 Y182.69 E2.59372
G1 X221.077 Y182.98 E2.60474
G1 X218.167 Y183.818 E2.64272
G1 X217.314 Y184.013 E2.65369
G1 X214.327 Y184.52 E2.69168
G1 X213.46 Y184.618 E2.70262
G1 X210.438 Y184.788 E2.74058
M204 S456
G0 F6000 X210.416 Y184.388
M204 S1425
G1 F1350 X209.584 Y184.388 E2.75102
G1 X206.562 Y184.218 E2.78897
G1 X205.74 Y184.126 E2.79934
G1 X202.753 Y183.619 E2.83734
G1 X201.943 Y183.434 E2.84776
G1 X199.033 Y182.596 E2.88573
G1 X198.246 Y182.321 E2.89619
G1 X195.451 Y181.162 E2.93413
G1 X194.708 Y180.803 E2.94448
G1 X192.056 Y179.338 E2.98247
G1 X191.35 Y178.895 E2.99293
G1 X188.882 Y177.143 E3.03088
G1 X188.236 Y176.628 E3.04124
G1 X185.977 Y174.61 E3.07923
G1 X185.388 Y174.021 E3.08967
G1 X183.371 Y171.763 E3.12764
G1 X182.856 Y171.116 E3.13801
G1 X181.105 Y168.649 E3.17595
G1 X180.663 Y167.946 E3.18636
G1 X179.197 Y165.294 E3.22436
G1 X178.837 Y164.547 E3.23476
G1 X177.678 Y161.75 E3.27273
G1 X177.403 Y160.964 E3.28317
G1 X176.565 Y158.053 E3.32116
G1 X176.38 Y157.243 E3.33158
G1 X175.874 Y154.259 E3.36953
G1 X175.782 Y153.438 E3.37989
G1 X175.612 Y150.417 E3.41784
G1 X175.612 Y149.586 E3.42826
G1 X175.782 Y146.563 E3.46623
G1 X175.874 Y145.741 E3.4766
G1 X176.38 Y142.757 E3.51456
G1 X176.565 Y141.947 E3.52497
G1 X177.403 Y139.036 E3.56296
G1 X177.679 Y138.248 E3.57343
G1 X178.839 Y135.451 E3.61141
G1 X179.197 Y134.708 E3.62175
G1 X180.662 Y132.056 E3.65974
G1 X181.105 Y131.351 E3.67018
G1 X182.856 Y128.884 E3.70812
G1 X183.371 Y128.237 E3.71849
G1 X185.388 Y125.979 E3.75646
G1 X185.977 Y125.39 E3.76691
G1 X188.236 Y123.372 E3.80489
G1 X188.882 Y122.857 E3.81525
G1 X191.35 Y121.105 E3.85321
G1 X192.054 Y120.663 E3.86363
G1 X194.706 Y119.197 E3.90163
G1 X195.454 Y118.837 E3.91204
G1 X198.249 Y117.679 E3.94998
G1 X199.033 Y117.404 E3.9604
G1 X201.943 Y116.566 E3.99838
G1 X202.753 Y116.381 E4.00879
G1 X205.74 Y115.874 E4.04679
G1 X206.562 Y115.782 E4.05716
G1 X209.584 Y115.612 E4.09512
G1 X210.416 Y115.612 E4.10555
G1 X213.438 Y115.782 E4.14351
G1 X214.26 Y115.874 E4.15388
G1 X217.247 Y116.381 E4.19187
G1 X218.057 Y116.566 E4.20229
G1 X220.967 Y117.404 E4.24027
G1 X221.754 Y117.679 E4.25072
G1 X224.549 Y118.838 E4.28867
G1 X225.292 Y119.197 E4.29902
G1 X227.944 Y120.662 E4.33701
G1 X228.649 Y121.105 E4.34745
G1 X231.116 Y122.856 E4.38539
G1 X231.763 Y123.371 E4.39576
G1 X234.021 Y125.388 E4.43373
G1 X234.61 Y125.977 E4.44417
G1 X236.628 Y128.236 E4.48216
G1 X237.143 Y128.882 E4.49252
G1 X238.895 Y131.35 E4.53047
G1 X239.337 Y132.054 E4.5409
G1 X240.803 Y134.706 E4.5789
G1 X241.163 Y135.454 E4.58931
G1 X242.321 Y138.249 E4.62725
G1 X242.596 Y139.033 E4.63767
G1 X243.434 Y141.943 E4.67564
G1 X243.619 Y142.752 E4.68605
G1 X244.126 Y145.737 E4.72402
G1 X244.218 Y146.561 E4.73442
G1 X244.388 Y149.584 E4.77239
G1 X244.388 Y150.414 E4.78279
G1 X244.218 Y153.437 E4.82076
G1 X244.126 Y154.259 E4.83114
G1 X243.62 Y157.243 E4.86909
G1 X243.435 Y158.053 E4.87951
G1 X242.597 Y160.964 E4.9175
G1 X242.321 Y161.752 E4.92797
G1 X241.161 Y164.549 E4.96594
G1 X240.803 Y165.292 E4.97628
G1 X239.338 Y167.944 E5.01428
G1 X238.895 Y168.649 E5.02472
G1 X237.144 Y171.116 E5.06266
G1 X236.629 Y171.763 E5.07303
G1 X234.612 Y174.021 E5.111
G1 X234.023 Y174.61 E5.12144
G1 X231.764 Y176.628 E5.15943
G1 X231.118 Y177.143 E5.16979
G1 X228.65 Y178.895 E5.20774
G1 X227.944 Y179.338 E5.21819
G1 X225.292 Y180.803 E5.25619
G1 X224.549 Y181.162 E5.26654
G1 X221.754 Y182.321 E5.30448
G1 X220.967 Y182.596 E5.31494
G1 X218.057 Y183.434 E5.35291
G1 X217.247 Y183.619 E5.36333
G1 X214.26 Y184.126 E5.40132
G1 X213.438 Y184.218 E5.4117
G1 X210.416 Y184.388 E5.44965
M204 S456
G0 F6000 X210.393 Y183.989
M204 S1425
G1 F1350 X209.607 Y183.989 E5.45951
G1 X206.585 Y183.819 E5.49747
G1 X205.807 Y183.731 E5.50729
G1 X202.82 Y183.224 E5.54528
G1 X202.054 Y183.05 E5.55513
G1 X199.144 Y182.212 E5.59311
G1 X198.4 Y181.951 E5.60299
G1 X195.605 Y180.792 E5.64094
G1 X194.901 Y180.453 E5.65074
G1 X192.249 Y178.988 E5.68873
G1 X191.582 Y178.569 E5.69861
G1 X189.114 Y176.817 E5.73656
G1 X188.503 Y176.329 E5.74637
G1 X186.244 Y174.311 E5.78436
G1 X185.687 Y173.754 E5.79423
G1 X183.67 Y171.496 E5.8322
G1 X183.182 Y170.885 E5.84201
G1 X181.431 Y168.418 E5.87995
G1 X181.013 Y167.753 E5.8898
G1 X179.547 Y165.101 E5.9278
G1 X179.206 Y164.394 E5.93764
G1 X178.047 Y161.597 E5.97561
G1 X177.787 Y160.853 E5.98549
G1 X176.949 Y157.942 E6.02348
G1 X176.775 Y157.176 E6.03333
G1 X176.269 Y154.192 E6.07128
G1 X176.181 Y153.415 E6.08109
G1 X176.011 Y150.394 E6.11903
G1 X176.011 Y149.608 E6.12889
G1 X176.181 Y146.585 E6.16686
G1 X176.269 Y145.808 E6.17667
G1 X176.775 Y142.824 E6.21462
G1 X176.949 Y142.058 E6.22447
G1 X177.787 Y139.147 E6.26246
G1 X178.048 Y138.401 E6.27237
G1 X179.208 Y135.604 E6.31034
G1 X179.547 Y134.901 E6.32013
G1 X181.012 Y132.249 E6.35812
G1 X181.431 Y131.582 E6.368
G1 X183.182 Y129.115 E6.40594
G1 X183.67 Y128.504 E6.41575
G1 X185.687 Y126.246 E6.45371
G1 X186.244 Y125.689 E6.46359
G1 X188.503 Y123.671 E6.50158
G1 X189.114 Y123.183 E6.51138
G1 X191.582 Y121.431 E6.54934
G1 X192.247 Y121.013 E6.55919
G1 X194.899 Y119.547 E6.59719
G1 X195.607 Y119.206 E6.60704
G1 X198.402 Y118.048 E6.64498
G1 X199.144 Y117.788 E6.65484
G1 X202.054 Y116.95 E6.69282
G1 X202.82 Y116.776 E6.70267
G1 X205.807 Y116.269 E6.74066
G1 X206.585 Y116.181 E6.75048
G1 X209.607 Y116.011 E6.78844
G1 X210.393 Y116.011 E6.7983
G1 X213.415 Y116.181 E6.83625
G1 X214.193 Y116.269 E6.84607
G1 X217.18 Y116.776 E6.88406
G1 X217.946 Y116.95 E6.89392
G1 X220.856 Y117.788 E6.93189
G1 X221.6 Y118.049 E6.94178
G1 X224.395 Y119.208 E6.97972
G1 X225.099 Y119.547 E6.98952
G1 X227.751 Y121.012 E7.02752
G1 X228.418 Y121.431 E7.03739
G1 X230.885 Y123.182 E7.07533
G1 X231.496 Y123.67 E7.08514
G1 X233.754 Y125.687 E7.12311
G1 X234.311 Y126.244 E7.13298
G1 X236.329 Y128.503 E7.17097
G1 X236.817 Y129.114 E7.18078
G1 X238.569 Y131.582 E7.21873
G1 X238.987 Y132.247 E7.22858
G1 X240.453 Y134.899 E7.26658
G1 X240.794 Y135.607 E7.27644
G1 X241.952 Y138.402 E7.31437
G1 X242.212 Y139.144 E7.32423
G1 X243.05 Y142.054 E7.36221
G1 X243.224 Y142.819 E7.37205
G1 X243.731 Y145.804 E7.41002
G1 X243.819 Y146.583 E7.41985
G1 X243.989 Y149.606 E7.45782
G1 X243.989 Y150.392 E7.46767
G1 X243.819 Y153.415 E7.50564
G1 X243.731 Y154.192 E7.51545
G1 X243.225 Y157.176 E7.55341
G1 X243.051 Y157.942 E7.56326
G1 X242.213 Y160.853 E7.60124
G1 X241.952 Y161.599 E7.61115
G1 X240.792 Y164.396 E7.64913
G1 X240.453 Y165.099 E7.65891
G1 X238.988 Y167.751 E7.69691
G1 X238.569 Y168.418 E7.70679
G1 X236.818 Y170.885 E7.74472
G1 X236.33 Y171.496 E7.75453
G1 X234.313 Y173.754 E7.7925
G1 X233.756 Y174.311 E7.80238
G1 X231.497 Y176.329 E7.84036
G1 X230.886 Y176.817 E7.85017
G1 X228.418 Y178.569 E7.88812
G1 X227.751 Y178.988 E7.898
G1 X225.099 Y180.453 E7.936
G1 X224.395 Y180.792 E7.94579
G1 X221.6 Y181.951 E7.98374
G1 X220.856 Y182.212 E7.99363
G1 X217.946 Y183.05 E8.0316
G1 X217.18 Y183.224 E8.04145
G1 X214.193 Y183.731 E8.07945
G1 X213.415 Y183.819 E8.08926
G1 X210.393 Y183.989 E8.12722
M204 S456
G0 F6000 X210.371 Y183.59
M204 S1425
G1 F1350 X209.629 Y183.59 E8.13653
G1 X206.607 Y183.42 E8.17448
G1 X205.874 Y183.337 E8.18373
G1 X202.887 Y182.83 E8.22173
G1 X202.165 Y182.665 E8.23102
G1 X199.255 Y181.827 E8.26899
G1 X198.553 Y181.582 E8.27832
G1 X195.758 Y180.423 E8.31626
G1 X195.095 Y180.103 E8.32549
G1 X192.443 Y178.638 E8.36349
G1 X191.814 Y178.243 E8.3728
G1 X189.346 Y176.491 E8.41075
G1 X188.769 Y176.031 E8.42001
G1 X186.51 Y174.013 E8.45799
G1 X185.985 Y173.488 E8.46731
G1 X183.968 Y171.23 E8.50527
G1 X183.508 Y170.653 E8.51453
G1 X181.757 Y168.186 E8.55247
G1 X181.363 Y167.559 E8.56175
G1 X179.897 Y164.907 E8.59975
G1 X179.576 Y164.241 E8.60902
G1 X178.417 Y161.444 E8.64699
G1 X178.172 Y160.743 E8.6563
G1 X177.334 Y157.832 E8.69429
G1 X177.169 Y157.109 E8.70359
G1 X176.663 Y154.125 E8.74154
G1 X176.58 Y153.393 E8.75078
G1 X176.41 Y150.372 E8.78873
G1 X176.41 Y149.63 E8.79803
G1 X176.58 Y146.607 E8.836
G1 X176.663 Y145.875 E8.84524
G1 X177.169 Y142.891 E8.88319
G1 X177.334 Y142.168 E8.89249
G1 X178.172 Y139.257 E8.93048
G1 X178.418 Y138.555 E8.93981
G1 X179.578 Y135.758 E8.97778
G1 X179.897 Y135.095 E8.98701
G1 X181.362 Y132.443 E9.025
G1 X181.757 Y131.814 E9.03432
G1 X183.508 Y129.347 E9.07226
G1 X183.968 Y128.77 E9.08151
G1 X185.985 Y126.512 E9.11948
G1 X186.51 Y125.987 E9.12879
G1 X188.769 Y123.969 E9.16677
G1 X189.346 Y123.509 E9.17603
G1 X191.814 Y121.757 E9.21398
G1 X192.441 Y121.363 E9.22327
G1 X195.093 Y119.897 E9.26127
G1 X195.76 Y119.576 E9.27055
G1 X198.555 Y118.418 E9.30849
G1 X199.255 Y118.173 E9.31779
G1 X202.165 Y117.335 E9.35577
G1 X202.887 Y117.17 E9.36506
G1 X205.874 Y116.663 E9.40305
G1 X206.607 Y116.58 E9.4123
G1 X209.629 Y116.41 E9.45026
G1 X210.371 Y116.41 E9.45956
G1 X213.393 Y116.58 E9.49752
G1 X214.126 Y116.663 E9.50677
G1 X217.113 Y117.17 E9.54476
G1 X217.835 Y117.335 E9.55405
G1 X220.745 Y118.173 E9.59203
G1 X221.447 Y118.418 E9.60135
G1 X224.242 Y119.577 E9.63929
G1 X224.905 Y119.897 E9.64853
G1 X227.557 Y121.362 E9.68652
G1 X228.186 Y121.757 E9.69584
G1 X230.653 Y123.508 E9.73377
G1 X231.23 Y123.968 E9.74303
G1 X233.488 Y125.985 E9.78099
G1 X234.013 Y126.51 E9.79031
G1 X236.031 Y128.769 E9.82829
G1 X236.491 Y129.346 E9.83755
G1 X238.243 Y131.814 E9.8755
G1 X238.637 Y132.441 E9.88479
G1 X240.103 Y135.093 E9.92279
G1 X240.424 Y135.76 E9.93207
G1 X241.582 Y138.555 E9.97001
G1 X241.827 Y139.255 E9.97931
G1 X242.665 Y142.165 E10.01729
G1 X242.83 Y142.886 E10.02656
G1 X243.337 Y145.871 E10.06453
G1 X243.42 Y146.605 E10.07379
G1 X243.59 Y149.628 E10.11176
G1 X243.59 Y150.37 E10.12107
G1 X243.42 Y153.393 E10.15904
G1 X243.337 Y154.125 E10.16827
G1 X242.831 Y157.109 E10.20623
G1 X242.666 Y157.832 E10.21553
G1 X241.828 Y160.743 E10.25352
G1 X241.582 Y161.445 E10.26285
G1 X240.422 Y164.242 E10.30082
G1 X240.103 Y164.905 E10.31004
G1 X238.638 Y167.557 E10.34804
G1 X238.243 Y168.186 E10.35735
G1 X236.492 Y170.653 E10.39529
G1 X236.032 Y171.23 E10.40454
G1 X234.015 Y173.488 E10.44251
G1 X233.49 Y174.013 E10.45182
G1 X231.231 Y176.031 E10.48981
G1 X230.654 Y176.491 E10.49906
G1 X228.186 Y178.243 E10.53702
G1 X227.557 Y178.638 E10.54633
G1 X224.905 Y180.103 E10.58433
G1 X224.242 Y180.423 E10.59356
G1 X221.447 Y181.582 E10.6315
G1 X220.745 Y181.827 E10.64083
G1 X217.835 Y182.665 E10.6788
G1 X217.113 Y182.83 E10.68809
G1 X214.126 Y183.337 E10.72608
G1 X213.393 Y183.42 E10.73533
G1 X210.371 Y183.59 E10.77329
M204 S456
G0 F6000 X210.348 Y183.19
M204 S1425
G1 F1350 X209.652 Y183.19 E10.78202
G1 X206.63 Y183.02 E10.81998
G1 X205.94 Y182.943 E10.82868
G1 X202.953 Y182.436 E10.86668
G1 X202.275 Y182.281 E10.8754
G1 X199.365 Y181.443 E10.91337
G1 X198.706 Y181.212 E10.92213
G1 X195.911 Y180.053 E10.96008
G1 X195.288 Y179.753 E10.96875
G1 X192.636 Y178.288 E11.00674
G1 X192.045 Y177.917 E11.01549
G1 X189.577 Y176.165 E11.05345
G1 X189.036 Y175.733 E11.06213
G1 X186.777 Y173.715 E11.10011
G1 X186.283 Y173.221 E11.10888
G1 X184.266 Y170.963 E11.14684
G1 X183.834 Y170.422 E11.15553
G1 X182.083 Y167.955 E11.19346
G1 X181.713 Y167.366 E11.20219
G1 X180.247 Y164.714 E11.24019
G1 X179.945 Y164.087 E11.24891
G1 X178.786 Y161.29 E11.28688
G1 X178.556 Y160.632 E11.29562
G1 X177.718 Y157.721 E11.33361
G1 X177.563 Y157.043 E11.34233
G1 X177.057 Y154.059 E11.38029
G1 X176.98 Y153.37 E11.38898
G1 X176.81 Y150.349 E11.42692
G1 X176.81 Y149.653 E11.43565
G1 X176.98 Y146.63 E11.47362
G1 X177.057 Y145.941 E11.48232
G1 X177.563 Y142.957 E11.52027
G1 X177.718 Y142.279 E11.52899
G1 X178.556 Y139.368 E11.56698
G1 X178.787 Y138.708 E11.57575
G1 X179.947 Y135.911 E11.61372
G1 X180.247 Y135.288 E11.62239
G1 X181.712 Y132.636 E11.66039
G1 X182.083 Y132.045 E11.66914
G1 X183.834 Y129.578 E11.70707
